X:1
T:Credo Domine, 10.10.10.10.10.10
T:Charles Harford Lloyd, 1916
T:Credo Domine, 10.10.10.10.10.10
T:Public Domain
C:Charles Harford Lloyd, 1916
Z:Public Domain
%%score ( 1 2 ) ( 3 4 )
L:1/8
M:none
K:F
V:1 treble 
V:2 treble 
V:3 bass 
V:4 bass 
V:1
 [CA]2 | [^CA]2 [EG]2 [DF]2 [CE]2 | [DF]2 [FA]2 E2 z B x | [FA]6 [_EA]2 | %4
 [DA]2 [DG]2 [DF]2 [A,E]2 | [A,D]2 [^CA]2 D2 z ^c x | [GB]6 [DB]2 | [^CA]3 [EG] [DF] z [FA]2 | %8
 [EA]2 [Ec]2 [D=B]3 [CA] | [CA]6 [Ec]2 | [F=B]2 [EA]2 [Dd]2 [EG]2 | [FA]3 [EA] [DG]2 [DF]2 | %12
 [CE]6 [Ec]2 | [^F=B]2 [DA]2 [Dd]2 [EG]2 | [DA]3 [DA] [DG]2 [DF]2 | [CE]6 [Ec]2 | %16
 [Fc]3 [Ec] F z [DG]2 | [^CA]2 [DG]2 [=CE]3 [CF] | [CF]6 |] %19
V:2
 x2 | x8 | x4 c3 G2 | x8 | x8 | x4 d3 A2 | x8 | x8 | x8 | x8 | x8 | x8 | x8 | x8 | x8 | x8 | %16
 x4 F x3 | x8 | x6 |] %19
V:3
 [F,A,]2 | [E,G,]2 [^C,B,]2 [D,A,]2 [A,,A,]2 | [D,A,]2 [D,F,]2 [C,G,]2 [E,C]2 x | [F,C]6 [^F,C]2 | %4
 [G,C]2 [G,B,]2 A,2 [G,^C]2 | [F,D]2 [E,G,]2 [F,A,]2 [^F,D]2 x | [G,D]6 [G,,G,]2 | %7
 [A,,E,]3 [^C,A,] [D,A,] z [D,=B,]2 | [E,C]2 [E,A,]2 [E,^G,]3 [A,,A,] | [A,,A,]6 A,2 | %10
 [D,=B,]2 [C,C]2 [=B,,G,]2 [C,C]2 | [F,C]3 [F,,C] [G,,=B,]2 [=B,,G,]2 | [C,G,]6 [A,,C]2 | %13
 [D,D]2 [C,^F,]2 [=B,,G,]2 [C,C]2 | [F,C]3 [F,C] [G,=B,]2 [^G,B,]2 | [A,C]6 [B,_C]2 | %16
 [A,C]3 [G,B,] [D,A,] z [B,,G,]2 | [A,,E,]2 [B,,G,]2 [C,B,]3 [F,A,] | [F,A,]6 |] %19
V:4
 x2 | x8 | x9 | x8 | x4 A,2 x2 | x9 | x8 | x8 | x8 | x6 A,2 | x8 | x8 | x8 | x8 | x8 | x8 | x8 | %17
 x8 | x6 |] %19

